X:1
T:Title
%%score { ( 1 4 ) | ( 2 3 ) }
L:1/8
Q:1/4=100
M:4/4
K:Bb
V:1 treble nm="Grand Piano"
V:4 treble 
V:2 bass 
V:3 bass 
V:1
 F2 G>A B2 c>d | [=Ec]2 [EG]2 A>G [A,_EF]2 | [B,DB]3 [B,FA] [B,EG]2 [CFA]2 | z2 d2 c4 | %4
w: Hubert~P.~Main * * * * *||||
 F2 G>A B2 c>d | [=Ec]2 [EG]2 A>G F2 | [FB]2 [Fe]2 [Fd]2 c>B | B2 [CA]2 [DB]4 | %8
w: ||||
 [Fc]2 [Fc]>[Gc] [Af]A=ed | [=Ec]2 [EG]2 [GB]2 A2 | f2 =ed c2 z G | [FA]2 =E->[EG] F4 | %12
w: ||||
 F2 G>A B2 c>d | [=Ec]2 [EG]2 A>G F2 | B2 e2 d2 c>B | B2 [CA]2 [DB]4 |] %16
w: ||||
V:2
 [B,D]2 [B,D]>[B,D] [G,B,D]2 [G,B,D]>[G,B,D] | z4 C2 z2 | G,3 D, E,2 E,2 | z4 F2 z2 | %4
 [B,D]2 [B,D]>[B,D] [G,B,D]2 [G,B,D]>[G,B,D] | z4 C2 z2 | [D,B,]2 [C,A,]2 [B,,B,]2 [E,G,E]2 | %7
 [F,D]2 [F,,F,]2 [B,,F,]4 | [F,A,]2 [F,A,]>[F,A,] [F,C][F,CF][F,A,F][F,A,F] | %9
 [C,G,]2 [C,C]2 [F,C]2[K:treble] [F,CF]2 | [F,A,F]2 [G,B,F]2 [A,CF]2 [B,D]2 | %11
 C2[K:bass] z z/ B,/ [F,A,]4 | [B,D]2 [B,D]>[B,D] [G,B,D]2 [G,B,D]>[G,B,D] | z4 C2 z2 | %14
 [G,B,D]2 [A,CF]2 [B,F]2[K:bass] [E,G,E]2 | [F,D]2 [F,,F,]2 [B,,F,]4 |] %16
V:3
 x8 | [C,B,]2 [C,C]2 [F,E]->[F,B,E] F,2 | x8 | D,2 [C,B,]2 [F,A,]4 | x8 | %5
 [C,B,]2 [C,C]2 [F,E]->[F,B,E] [F,A,C]2 | x8 | x8 | x8 | x6[K:treble] x2 | x8 | z2[K:bass] C,2 z4 | %12
 x8 | [C,B,]2 [C,C]2 [F,E]->[F,B,E] [F,A,E]2 | x6[K:bass] x2 | x8 |] %16
V:4
 x8 | x8 | x8 | [B,B]2 =E->[Ec] z2 _E2 | x8 | x8 | x8 | x8 | x8 | x8 | z4 z2 F2 | z2 [CA]2 z4 | %12
 x8 | x8 | x8 | x8 |] %16

